**kern	**kern	**dynam
*part1	*part1	*part1
*staff2	*staff1	*
*I"Piano	*	*
*clefF4	*clefG2	*
*k[f#c#]	*k[f#c#]	*
=1	=1	=1
4GG#X)	12r	.
!	!LO:TX:a:i:t=colla voce	!
.	(12G#XL	>
.	12c#J	.
4r	4e#X) 4g#X	.
=	=	=
4GG#X'~ 4G#X	4B#X'~ 4f# 4g#X	] pp
4r	4r	.
=	=	=
4CC#'~ 4C#	12c#'L	.
.	12g#X'	.
.	12e#X'J	???
4r	12cc#'L	.
.	12f#'	.
.	12e#'J	.
=	=	=
8BBn^L 8Bn	12c#'L	.
.	12gn'	.
16r	.	.
.	12en'J	.
16C#Jk	.	.
8C#	12cc#'L	.
.	12f#'	.
8r	.	.
.	12e'J	.
=	=	=
8AA#X^L 8A#X	12c#'L	.
.	12f#'	.
16r	.	.
.	12e'J	.
16C#Jk	.	.
8C#	12cc#'L	.
.	12f#	.
8r	.	.
.	12e'J	.
=	=	=
8GGn^L 8Gn	12c#'L	.
.	12b'	.
16r	.	.
.	12e'J	.
16C#Jk	.	.
8C#	12cc#'L	.
.	12b'	.
8r	.	.
.	12e'J	.
=	=	=
8FF#^L 8F#	12c#'L	.
.	12a#X'	.
16r	.	.
.	12e'J	.
16C#Jk	.	.
8C#	12cc#'L	.
.	12b'	.
8r	.	.
.	12e'J	.
=	=	=
*-	*-	*-
!!!system-decoration: {(s1,s2)}
